X: 2
T:Nutting We Will go, Eynsham 1
M:4/4
L:1/8
A:Eynsham
P:A5B6AB2A2B2
K:G
P:A
d2|G2B2 B2d2|d2c2 c2A2|G2B2  d2g2|d4   B2c2|
e2A2 c2B2|d2G2 A2Bc|A2F2  D2A2|G4   G2  ||
P:B
d2|d2g2 g2f2|e2d2 d2d2|d2g2  g2f2|e6   d2  |
d2g2 g2f2|e2d2 c2B2|A2B2  c2d2|e6       ||
